!!!OTL: Marienlied. / (Hallorenlied im Wh. I, 42.)
!!!ARE: Europa, Mitteleuropa, Deutschland
!!!SCT: A0603
!!!TXL: @@DE
!!!YEM: Copyright 1995, estate of Helmut Schaffrath.
**kern	**text
*M6/2	*
*met(C|3)	*
*clefC4	*
*k[]	*
*C:ion	*
!LO:TX:a:t=jon.	!
2ryy	.
2ryy	.
{2c	Jch
=1	=1
1A	weiß
2A	ein
1B	Ma-
2B	-ger
=2	=2
1.c	ſcho-
1c}	-ne,
{2c	die
=3	=3
1d	tregt
2c	den
1c	höch-
2B	-ſten
=4	=4
*lig	*
1.A	preiß:
1G}	.
*Xlig	*
{2G	Wer
=5	=5
1G	ringt
2A	näch
1B	jh-
2B	-rem
=6	=6
1.c	loh-
1c}	-ne,
{2c	ſie
=7	=7
1c	iſt
2G	bey
1G	dien-
2F	-ſten
=8	=8
1.E	weiß.
2r	.
2r}	.
{2E	Bey
=9	=9
1E	jhr
2E	ſeynd
1G	an-
2G	-dre
=10	=10
1.E	Fraw-
1C}	-en,
{2C	wie
=11	=11
1G	Blüm-
2G	-lein
1A	an
2B	der
=12	=12
*lig	*
1c	Aw-
2e	.
*Xlig	*
1d}	-e,
{2d	ſie
=13	=13
1c	iſt
2c	ein
1A	Li-
2B	-lien-
=14	=14
1.c\ll}	-reiß.
==	==
!!!GTL: Geistliche Volkslieder
!!!AGN: Romanze, Ballade, Lied, religioeses Lied
!! Maizer Cantual 1605 S. 189.
!!!ONB: ESAC (Essen Associative Code) Database: ALTDEU
!!!AMT: compound duple
!!!AIN: vox
!!!EED: Helmut Schaffrath
!!!EEV: 1.0
!!!RDF**kern: l = terminal long
!!!AMD: Ionian
!!!URL-scan: https://rosdok.uni-rostock.de/mcrviewer/recordIdentifier/rosdok_ppn738218359/iview2/phys_0784.iview2?x=143.2775742772492&y=2386.556375553366&scale=0.7052832894250849&rotation=0&layout=singlePageLayout&logicalDiv=log_0021
!!!ENC: Anna Maria Matuszewska
!!!EEV: 2024/22/03
*-	*-
